X: 1
T: THE MORRIS ON
S: Jour EFDSS, Vol 8.
O: Headington
P: A and B alternately
B: Morris Ring
Z: 2005 John Chambers <jc@trillian.mit.edu>
M: 4/4
L: 1/8
K: G
P: A
|: z2 | g2d2 d2ef | g2d2 d2ef | g2d2 d2c2 | B4 G2 :|
P: B
|: AB | c2e2 e2dc | B2d2 d2cB | G2B2 c2d2 | B4 G2 :|
